X:357
T: Zhouzongli zai huazongzhong xiaole
N: C1858
O: China,Qinghai Minhe
S: I, 227]
N: Hui
R: Xiaodiao, Yanxiqu]
M: 2/4
L: 1/16
K: A
c4e3c | c2B2B4- | B8 |
cec4Bc | A4BcBA | F2zFA3B | B3cBAF2 | F2E2E4- | E8 |
F2EFA4 | cec2c2B2 | B8- | B8 | cBAFE4 |
FAFEC2zB, | E3FB3c | BAF2F3E | E8

@@@ Tune index: 6912
